src/svg/arrow-shuffle.svg

<svg version="1.2" baseProfile="tiny" xmlns="http://www.w3.org/2000/svg" width="24" height="24" viewBox="0 0 24 24"><path d="M4 9h3.5c.736 0 1.393.391 1.851 1.001.325-.604.729-1.163 1.191-1.662-.803-.823-1.866-1.339-3.042-1.339h-3.5c-.553 0-1 .448-1 1s.447 1 1 1zM11.685 12.111c.551-1.657 2.256-3.111 3.649-3.111h1.838l-1.293 1.293c-.391.391-.391 1.023 0 1.414.195.195.451.293.707.293s.512-.098.707-.293l3.707-3.707-3.707-3.707c-.391-.391-1.023-.391-1.414 0s-.391 1.023 0 1.414l1.293 1.293h-1.838c-2.274 0-4.711 1.967-5.547 4.479l-.472 1.411c-.641 1.926-2.072 3.11-2.815 3.11h-2.5c-.553 0-1 .448-1 1s.447 1 1 1h2.5c1.837 0 3.863-1.925 4.713-4.479l.472-1.41zM15.879 13.293c-.391.391-.391 1.023 0 1.414l1.293 1.293h-2.338c-1.268 0-2.33-.891-2.691-2.108-.256.75-.627 1.499-1.09 2.185.886 1.162 2.243 1.923 3.781 1.923h2.338l-1.293 1.293c-.391.391-.391 1.023 0 1.414.195.195.451.293.707.293s.512-.098.707-.293l3.707-3.707-3.707-3.707c-.391-.391-1.023-.391-1.414 0z"/></svg>

<?xml version="1.0" encoding="iso-8859-1"?>
<!-- Generator: Adobe Illustrator 16.2.1, SVG Export Plug-In . SVG Version: 6.00 Build 0)  -->
<svg version="1.2" baseProfile="tiny" id="Layer_1" xmlns="http://www.w3.org/2000/svg" xmlns:xlink="http://www.w3.org/1999/xlink"
	 x="0px" y="0px" width="24px" height="24px" viewBox="0 0 24 24" xml:space="preserve">
<g>
	<path d="M4,9h3.5c0.736,0,1.393,0.391,1.851,1.001c0.325-0.604,0.729-1.163,1.191-1.662C9.739,7.516,8.676,7,7.5,7H4
		C3.447,7,3,7.448,3,8S3.447,9,4,9z"/>
	<path d="M11.685,12.111C12.236,10.454,13.941,9,15.334,9h1.838l-1.293,1.293c-0.391,0.391-0.391,1.023,0,1.414
		C16.074,11.902,16.33,12,16.586,12s0.512-0.098,0.707-0.293L21,8l-3.707-3.707c-0.391-0.391-1.023-0.391-1.414,0
		s-0.391,1.023,0,1.414L17.172,7h-1.838c-2.274,0-4.711,1.967-5.547,4.479l-0.472,1.411C8.674,14.816,7.243,16,6.5,16H4
		c-0.553,0-1,0.448-1,1s0.447,1,1,1h2.5c1.837,0,3.863-1.925,4.713-4.479L11.685,12.111z"/>
	<path d="M15.879,13.293c-0.391,0.391-0.391,1.023,0,1.414L17.172,16h-2.338c-1.268,0-2.33-0.891-2.691-2.108
		c-0.256,0.75-0.627,1.499-1.09,2.185C11.939,17.239,13.296,18,14.834,18h2.338l-1.293,1.293c-0.391,0.391-0.391,1.023,0,1.414
		C16.074,20.902,16.33,21,16.586,21s0.512-0.098,0.707-0.293L21,17l-3.707-3.707C16.902,12.902,16.27,12.902,15.879,13.293z"/>
</g>
</svg>
